!!!OTL: HIER STEHEN WIRAUF UNSERN KRUECKEN
!!!ARE: Europa, Mitteleuropa, Deutschland; France, Elsass
!!!SCT: E0334A
!!!YEM: Copyright 1995, estate of Helmut Schaffrath.
**kern
*ICvox
*Ivox
*M4/4
*k[b-e-]
*B-:
{8ff
8dd
8ff
=1
2b-
8r
8bb-
8bb-
8bb-
=2
4aa
4ff
8r}
{8aa
8bb-
8gg
=3
4ff
8dd
8gg
8ff
8ee-
8cc
8ee-
=4
4ee-
4dd
8r}
{8dd
8cc
8dd
=5
8ff
8ee-
4ee-
4r
8dd
8ee-
=6
8gg
8ff
4ff
8r}
{8dd
8cc
8dd
=7
8ff
8ee-
4ee-
4r
8dd
8ee-
=8
8gg
8ff
4ff
8r}
{8bb-
8bb-
8bb-
=9
4gg
8ff
8ee-
4dd
4cc
=10
8ff
8ee-
8dd
8ee-
8ff}
{8bb-
8bb-
8bb-
=11
4gg
8ff
8ee-
4ff
4a
=12
2b-
8r}
==
!!!AGN: historisches Lied, Krieg, Invalieden; Tod Friedrich II (1786)
!!!ONB: ESAC (Essen Associative Code) Database: ERK1
!!!AMT: simple quadruple
!!!AIN: vox
!!!EED: Helmut Schaffrath
!!!EEV: 1.0
*-
